icons/NeoVim-Light.svg

<svg width="256" height="256" viewBox="0 0 256 256" fill="none" xmlns="http://www.w3.org/2000/svg">
<rect width="256" height="256" rx="60" fill="#F4F2ED"/>
<path fill-rule="evenodd" clip-rule="evenodd" d="M46 71.0063L88.5954 28V227.957L46 185.45V71.0063Z" fill="url(#paint0_linear_306_34)"/>
<path fill-rule="evenodd" clip-rule="evenodd" d="M210.584 71.4104L167.406 28.0225L168.282 227.958L210.878 185.45L210.584 71.4104Z" fill="url(#paint1_linear_306_34)"/>
<path fill-rule="evenodd" clip-rule="evenodd" d="M88.5672 28.0332L199.309 197.012L168.32 228L57.5195 59.3947L88.5672 28.0332Z" fill="url(#paint2_linear_306_34)"/>
<path fill-rule="evenodd" clip-rule="evenodd" d="M88.6046 106.416L88.5462 113.072L54.3527 62.5927L57.5193 59.3677L88.6046 106.416Z" fill="black" fill-opacity="0.13"/>
<defs>
<linearGradient id="paint0_linear_306_34" x1="67.2972" y1="28" x2="67.2972" y2="227.958" gradientUnits="userSpaceOnUse">
<stop stop-color="#16B0ED" stop-opacity="0.8"/>
<stop offset="1" stop-color="#0F59B2" stop-opacity="0.837"/>
</linearGradient>
<linearGradient id="paint1_linear_306_34" x1="189.14" y1="28.0225" x2="189.14" y2="227.957" gradientUnits="userSpaceOnUse">
<stop stop-color="#7DB643"/>
<stop offset="1" stop-color="#367533"/>
</linearGradient>
<linearGradient id="paint2_linear_306_34" x1="128.414" y1="28.0332" x2="128.414" y2="228.01" gradientUnits="userSpaceOnUse">
<stop stop-color="#88C649" stop-opacity="0.8"/>
<stop offset="1" stop-color="#439240" stop-opacity="0.84"/>
</linearGradient>
</defs>
</svg>

<svg xmlns="http://www.w3.org/2000/svg" width="256" height="256" fill="none" viewBox="0 0 256 256"><rect width="256" height="256" fill="#F4F2ED" rx="60"/><path fill="url(#a)" fill-rule="evenodd" d="m46 71 42.6-43v199.96L46 185.45z" clip-rule="evenodd"/><path fill="url(#b)" fill-rule="evenodd" d="m210.58 71.41-43.17-43.39.87 199.94 42.6-42.51z" clip-rule="evenodd"/><path fill="url(#c)" fill-rule="evenodd" d="M88.57 28.03 199.3 197.01 168.32 228 57.52 59.4z" clip-rule="evenodd"/><path fill="#000" fill-opacity=".13" fill-rule="evenodd" d="m88.6 106.42-.05 6.65-34.2-50.48 3.17-3.22z" clip-rule="evenodd"/><defs><linearGradient id="a" x1="67.3" x2="67.3" y1="28" y2="227.96" gradientUnits="userSpaceOnUse"><stop stop-color="#16B0ED" stop-opacity=".8"/><stop offset="1" stop-color="#0F59B2" stop-opacity=".84"/></linearGradient><linearGradient id="b" x1="189.14" x2="189.14" y1="28.02" y2="227.96" gradientUnits="userSpaceOnUse"><stop stop-color="#7DB643"/><stop offset="1" stop-color="#367533"/></linearGradient><linearGradient id="c" x1="128.41" x2="128.41" y1="28.03" y2="228.01" gradientUnits="userSpaceOnUse"><stop stop-color="#88C649" stop-opacity=".8"/><stop offset="1" stop-color="#439240" stop-opacity=".84"/></linearGradient></defs></svg>
